Numix/64/emotes/face-hug-left.svg

<?xml version="1.0" encoding="UTF-8" standalone="no"?>
<svg
   xmlns:dc="http://purl.org/dc/elements/1.1/"
   xmlns:cc="http://creativecommons.org/ns#"
   xmlns:rdf="http://www.w3.org/1999/02/22-rdf-syntax-ns#"
   xmlns:svg="http://www.w3.org/2000/svg"
   xmlns="http://www.w3.org/2000/svg"
   xmlns:sodipodi="http://sodipodi.sourceforge.net/DTD/sodipodi-0.dtd"
   xmlns:inkscape="http://www.inkscape.org/namespaces/inkscape"
   width="64px"
   height="64px"
   viewBox="0 0 48 48"
   version="1.1"
   id="svg513"
   inkscape:version="0.91 r"
   sodipodi:docname="face-hug-left.svg">
  <metadata
     id="metadata532">
    <rdf:RDF>
      <cc:Work
         rdf:about="">
        <dc:format>image/svg+xml</dc:format>
        <dc:type
           rdf:resource="http://purl.org/dc/dcmitype/StillImage" />
      </cc:Work>
    </rdf:RDF>
  </metadata>
  <defs
     id="defs530" />
  <sodipodi:namedview
     pagecolor="#ffffff"
     bordercolor="#666666"
     borderopacity="1"
     objecttolerance="10"
     gridtolerance="10"
     guidetolerance="10"
     inkscape:pageopacity="0"
     inkscape:pageshadow="2"
     inkscape:window-width="640"
     inkscape:window-height="480"
     id="namedview528" />
  <g
     id="surface1">
    <path
       style=" stroke:none;fill-rule:nonzero;fill:rgb(81.568627%,62.745098%,0%);fill-opacity:1;"
       d="M 39 24.5 C 39 23.671875 40.566406 23 42.5 23 C 44.433594 23 46 23.671875 46 24.5 C 46 25.328125 44.433594 26 42.5 26 C 40.566406 26 39 25.328125 39 24.5 Z M 39 24.5 "
       id="path516" />
    <path
       style=" stroke:none;fill-rule:nonzero;fill:rgb(100%,85.490196%,36.862745%);fill-opacity:1;"
       d="M 6 24 C 6 32.5625 14.058594 39.5 24 39.5 C 33.941406 39.5 42 32.5625 42 24 C 42 15.441406 33.941406 8.5 24 8.5 C 14.058594 8.5 6 15.441406 6 24 Z M 6 24 "
       id="path518" />
    <path
       style=" stroke:none;fill-rule:nonzero;fill:rgb(39.607843%,39.607843%,39.607843%);fill-opacity:1;"
       d="M 34 18 C 35.378906 18 36.5 19.121094 36.5 20.5 C 36.5 20.753906 36.460938 21.003906 36.382812 21.246094 C 36.054688 20.207031 35.089844 19.5 34 19.5 C 32.90625 19.5 31.941406 20.210938 31.617188 21.253906 C 31.539062 21.011719 31.5 20.753906 31.5 20.5 C 31.5 19.121094 32.621094 18 34 18 Z M 34 18 "
       id="path520" />
    <path
       style=" stroke:none;fill-rule:nonzero;fill:rgb(39.607843%,39.607843%,39.607843%);fill-opacity:1;"
       d="M 22 18 C 23.378906 18 24.5 19.121094 24.5 20.5 C 24.5 20.753906 24.460938 21.003906 24.382812 21.246094 C 24.054688 20.207031 23.089844 19.5 22 19.5 C 20.90625 19.5 19.941406 20.210938 19.617188 21.253906 C 19.539062 21.011719 19.5 20.753906 19.5 20.5 C 19.5 19.121094 20.621094 18 22 18 Z M 22 18 "
       id="path522" />
    <path
       style=" stroke:none;fill-rule:nonzero;fill:rgb(39.607843%,39.607843%,39.607843%);fill-opacity:1;"
       d="M 34.902344 28 C 34.332031 30.886719 31.414062 33 28 33 C 24.585938 32.996094 21.675781 30.882812 21.105469 28 L 22.066406 28 C 22.492188 29.71875 25.019531 30.996094 28 31 C 30.980469 30.996094 33.507812 29.71875 33.933594 28 Z M 34.902344 28 "
       id="path524" />
    <path
       style=" stroke:none;fill-rule:nonzero;fill:rgb(81.568627%,62.745098%,0%);fill-opacity:1;"
       d="M 10 26.5 C 10 25.671875 11.566406 25 13.5 25 C 15.433594 25 17 25.671875 17 26.5 C 17 27.328125 15.433594 28 13.5 28 C 11.566406 28 10 27.328125 10 26.5 Z M 10 26.5 "
       id="path526" />
  </g>
</svg>

<svg xmlns="http://www.w3.org/2000/svg" width="64" height="64" viewBox="0 0 48 48">
 <g>
  <path d="m 39 24.5 c 0 -0.828 1.566 -1.5 3.5 -1.5 c 1.934 0 3.5 0.672 3.5 1.5 c 0 0.828 -1.566 1.5 -3.5 1.5 c -1.934 0 -3.5 -0.672 -3.5 -1.5 m 0 0" style="fill:#cf9f00;fill-opacity:1;stroke:none;fill-rule:nonzero"/>
  <path d="m 6 24 c 0 8.563 8.06 15.5 18 15.5 c 9.941 0 18 -6.938 18 -15.5 c 0 -8.559 -8.06 -15.5 -18 -15.5 c -9.941 0 -18 6.941 -18 15.5 m 0 0" style="fill:#ffd95d;fill-opacity:1;stroke:none;fill-rule:nonzero"/>
  <path d="m 34 18 c 1.379 0 2.5 1.121 2.5 2.5 c 0 0.254 -0.039 0.504 -0.117 0.746 c -0.328 -1.039 -1.293 -1.746 -2.383 -1.746 c -1.094 0 -2.059 0.711 -2.383 1.754 c -0.078 -0.242 -0.117 -0.5 -0.117 -0.754 c 0 -1.379 1.121 -2.5 2.5 -2.5 m 0 0" style="fill:#646464;fill-opacity:1;stroke:none;fill-rule:nonzero"/>
  <path d="m 22 18 c 1.379 0 2.5 1.121 2.5 2.5 c 0 0.254 -0.039 0.504 -0.117 0.746 c -0.328 -1.039 -1.293 -1.746 -2.383 -1.746 c -1.094 0 -2.059 0.711 -2.383 1.754 c -0.078 -0.242 -0.117 -0.5 -0.117 -0.754 c 0 -1.379 1.121 -2.5 2.5 -2.5 m 0 0" style="fill:#646464;fill-opacity:1;stroke:none;fill-rule:nonzero"/>
  <path d="m 34.902 28 c -0.57 2.887 -3.488 5 -6.902 5 c -3.414 -0.004 -6.324 -2.117 -6.895 -5 l 0.961 0 c 0.426 1.719 2.953 2.996 5.934 3 c 2.98 -0.004 5.508 -1.281 5.934 -3 m 0.969 0" style="fill:#646464;fill-opacity:1;stroke:none;fill-rule:nonzero"/>
  <path d="m 10 26.5 c 0 -0.828 1.566 -1.5 3.5 -1.5 c 1.934 0 3.5 0.672 3.5 1.5 c 0 0.828 -1.566 1.5 -3.5 1.5 c -1.934 0 -3.5 -0.672 -3.5 -1.5 m 0 0" style="fill:#cf9f00;fill-opacity:1;stroke:none;fill-rule:nonzero"/>
 </g>
</svg>
